X:218
T: PFLUECKE ROSEN WENN SIE BLUEHN
N: F0372
O: Europa, Mitteleuropa, Deutschland
R: Jugend - Lied, Moral, Belehrung, Vergaenglichkeit
M: 2/4
L: 1/8
K: G
 | BcdB | AAd2 |
AGFE | D2z2 |
AAFD | Bcd2 |
eeFF | G2z2

@@@ Tune index: 5649
